!!!SOCIAL_FUNCTION:	songs of the drum religion
!!!PDT:	1932
!!!OTL: No_106_Two_Women_Go_Traveling.krn
!!!REG: Wisconsin
!!!LANG: Non-Tone
!!!LING_GROUP: Algonquin
**kern
*staff1
=1-
*clefF4
*k[]
*M2/4
4r
8r
16.r
32B\
=2
8.d\L
16c\Jk
8d\L
16B\L
16A\JJ
=3
16A\LK
[8.A\J
8A\L]
16D\Jk
32r
32B\
=4
8.d\L
16c\Jk
8d\L
16B\L
16A\JJ
=5
16A\LK
8.A\J
8A\L
16B\L
16A\JJ
=6
8G\L
8E\J
16D\LL
16D\JJ
16.r
32A\
=7
8A\L
16B\L
16A\JJ
8G\L
8E\J
=8
16D\LK
[8.D\J
8.D/L]
16C/Jk
=9
8D/L
8BB/J
16AA/LL
16AA/JJ
16.r
32D\
=10
8.D/L
16BB/Jk
8D/L
16.BB/L
32AA/JJk
=11
8AA/L
8AA/J
4AA/
=12
4r
16A\LK
8.A\J
=13
8d\L
16d\L
16d\JJ
16.c\LL
32c\JK
8A\J
=14||
*M3/8
16.G\LL
32G\K
16.E\
32D\K
16.D\
32A\JJk
=15||
*M2/4
8A\L
16B\L
16A\JJ
8G\L
8E\J
=16
16D\LK
[8.D\J
8.D/L]
16BB/Jk
=17
8D/L
8BB/J
16AA/LL
16AA/JJ
16.r
32D\
=18
8.D/L
16BB/Jk
8D/L
16.BB/L
32AA/JJk
=19
8AA/L
8AA/J
4AA/
==
*-
